dataset/google-earth/icon.svg

<?xml version="1.0" encoding="UTF-8" standalone="no"?>
<svg
   width="128"
   height="128"
   version="1.1"
   id="svg24"
   xmlns:xlink="http://www.w3.org/1999/xlink"
   xmlns="http://www.w3.org/2000/svg"
   xmlns:svg="http://www.w3.org/2000/svg">
  <defs
     id="defs28">
    <linearGradient
       xlink:href="#linearGradient17"
       id="linearGradient5"
       x1="-104.64275"
       y1="176.5119"
       x2="3.3572464"
       y2="176.5119"
       gradientUnits="userSpaceOnUse"
       gradientTransform="matrix(1.1111111,0,0,1.0925926,120.26972,-126.85559)" />
    <linearGradient
       id="linearGradient17"
       gradientUnits="userSpaceOnUse"
       x1="0"
       y1="269.46301"
       x2="118.926"
       y2="269.46301"
       gradientTransform="matrix(1,0,0,0.98333333,-118,-175.03333)">
      <stop
         offset="0"
         stop-color="#e5a50a"
         id="stop14"
         style="stop-color:#000000;stop-opacity:1;" />
      <stop
         offset="0.414"
         stop-color="#fbdf9b"
         id="stop15"
         style="stop-color:#ffffff;stop-opacity:1;" />
      <stop
         offset="0.81300002"
         stop-color="#e5a50a"
         id="stop16"
         style="stop-color:#000000;stop-opacity:1;" />
      <stop
         offset="1"
         stop-color="#f8ca5b"
         id="stop17"
         style="stop-color:#b2b2b2;stop-opacity:1;" />
    </linearGradient>
  </defs>
  <path
     fill="#255fdb"
     d="M 45.37959,78.29525 C 24.925054,51.68986 3.925106,71.907 9.406919,90.50195 23.19539,120.15078 58.820174,133.19649 88.977073,119.64034 99.371761,114.96771 108.19392,107.47515 114.40681,98.04315 98.595453,112.60274 69.88413,110.16946 45.37959,78.29525 Z"
     id="path4-3"
     style="fill:#1d4baf;fill-opacity:1;stroke-width:0.0265482" />
  <path
     fill="#4285f4"
     d="M 63.665947,59.97512 C 35.534159,18.02588 4.000098,40.38137 4.000098,66.00811 c -0.01189,8.48722 1.849575,16.87594 5.45453,24.58768 l 3e-7,-3.999998 C 9.4546295,70.510714 26.960699,61.08945 44.90917,84.76392 c 27.443166,36.19782 54.374937,29.82967 69.44312,13.35967 4.83923,-7.30346 7.96475,-15.57412 9.14998,-24.21231 v 0.11392 -4.05696 c 0,-19.551748 -35.8478,25.775504 -59.836323,-9.99316 z"
     id="path6-6"
     style="fill:#1367f1;fill-opacity:1;stroke-width:0.0265482" />
  <path
     fill="#91bfff"
     d="M 82.947753,41.20588 C 62.056872,7.32071 35.568254,10.37069 17.636429,28.52994 8.797173,39.08399 3.975238,52.33663 4.000098,66.00811 c 1.875024,-24.8022 32.386341,-42.0632 59.999944,0 24.545455,37.43794 55.136768,23.594415 59.486758,4.034175 l 0.0118,3.909785 c 0.38066,-2.66419 0.51906,-5.36147 0.46053,-8.05122 V 63.21952 C 113.32958,70.70038 99.352291,67.81125 82.947774,41.20586 Z"
     id="path8-7"
     style="fill:#5ca0ff;fill-opacity:1;stroke-width:0.0265482" />
  <path
     fill="#c4e1ff"
     d="M 83.090935,47.23887 C 102.22274,77.47745 118.71592,69.74185 124,63.27315 123.78639,58.75318 123.04279,54.27253 121.7841,49.92019 112.86591,50.10121 110.78636,48.63987 102.01138,35.50139 88.600009,15.29764 71.704567,1.65641 42.181888,11.04103 32.616542,14.72955 24.16777,20.75862 17.636429,28.55676 37.920523,10.20312 62.806855,15.18368 83.090935,47.23887 Z"
     id="path10-5"
     style="fill:#8fc6ff;fill-opacity:1;stroke-width:0.0265482" />
  <path
     fill="#f5f5f5"
     d="M 100.70229,38.10227 C 109.45,51.26086 114.77499,51.93119 121.7841,49.92019 112.69614,18.53669 79.451584,0.33841 47.530276,9.27323 45.720297,9.77987 43.935556,10.36978 42.181888,11.04105 68.554573,2.863 87.256827,17.89181 100.70229,38.10227 Z"
     id="path12-3"
     style="fill:#dbdbdb;fill-opacity:1;stroke-width:0.0265482" />
  <path
     id="circle2-6"
     style="opacity:0.4;fill:url(#linearGradient5);stroke-width:0.343027"
     d="M 124,66 A 59.999999,58.999999 0 0 1 64.000003,125 59.999999,58.999999 0 0 1 3.999995,66 59.999999,58.999999 0 0 1 64.000003,7.0000004 59.999999,58.999999 0 0 1 124,66 Z" />
  <path
     fill="#255fdb"
     d="M 45.37959,74.295254 C 24.925054,47.689859 3.9251063,67.907 9.4069194,86.50195 23.19539,116.15078 58.820174,129.19649 88.977073,115.64034 99.371761,110.96771 108.19392,103.47515 114.40681,94.043149 98.595453,108.60274 69.88413,106.16946 45.37959,74.295254 Z"
     id="path4-3-9"
     style="stroke-width:0.0265482" />
  <path
     fill="#4285f4"
     d="M 63.665947,55.97512 C 35.534159,14.02588 4.000098,36.381372 4.000098,62.00811 3.9882069,70.495326 5.8496731,78.884046 9.4546283,86.595792 5.7114587,69.227552 26.009177,55.834371 44.90917,80.763917 c 27.443166,36.197823 54.374937,29.829673 69.44312,13.359678 4.83923,-7.303468 7.96475,-15.57413 9.14998,-24.212315 v 0.11392 c -6.47046,19.734521 -35.025,22.945402 -59.836323,-14.050123 z"
     id="path6-6-9"
     style="stroke-width:0.0265482" />
  <path
     fill="#91bfff"
     d="M 82.947753,37.20588 C 62.056872,3.3207089 35.568254,6.3706905 17.636429,24.529936 8.7971734,35.083986 3.9752378,48.33663 4.000098,62.00811 c 1.8750243,-24.802198 32.386341,-42.063201 59.999944,0 24.545455,37.437943 55.124968,27.684634 59.474958,8.124394 l 0.0236,-0.180437 c 0.38066,-2.664184 0.51906,-5.361469 0.46053,-8.051219 v -2.68133 c -10.62951,7.48086 -24.606799,4.591736 -41.011316,-22.013659 z"
     id="path8-7-1"
     style="stroke-width:0.0265482" />
  <path
     fill="#c4e1ff"
     d="M 83.090935,43.238871 C 102.22274,73.477455 118.71592,65.741852 124,59.273154 123.78639,54.753178 123.04279,50.272526 121.7841,45.920191 112.86591,46.10121 110.78636,44.639867 102.01138,31.501387 88.600009,11.297644 71.704567,-2.3435891 42.181888,7.041031 32.616542,10.729555 24.16777,16.758617 17.636429,24.556764 37.920523,6.2031239 62.806855,11.183682 83.090935,43.238871 Z"
     id="path10-5-4"
     style="stroke-width:0.0265482" />
  <path
     fill="#f5f5f5"
     d="M 100.70229,34.102273 C 109.45,47.260861 114.77499,47.931192 121.7841,45.920191 112.69614,14.536692 79.451584,-3.6615926 47.530276,5.2732315 45.720297,5.7798699 43.935556,6.3697771 42.181888,7.0410518 68.554573,-1.1369994 87.256827,13.89181 100.70229,34.102273 Z"
     id="path12-3-9"
     style="stroke-width:0.0265482" />
</svg>

<svg xmlns="http://www.w3.org/2000/svg" xmlns:xlink="http://www.w3.org/1999/xlink" width="128" height="128"><defs><linearGradient xlink:href="#a" id="b" x1="-104.643" x2="3.357" y1="176.512" y2="176.512" gradientTransform="matrix(1.11111 0 0 1.0926 120.27 -126.856)" gradientUnits="userSpaceOnUse"/><linearGradient id="a" x1="0" x2="118.926" y1="269.463" y2="269.463" gradientTransform="matrix(1 0 0 .98333 -118 -175.033)" gradientUnits="userSpaceOnUse"><stop offset="0" stop-color="#e5a50a" style="stop-color:#000;stop-opacity:1"/><stop offset=".414" stop-color="#fbdf9b" style="stop-color:#fff;stop-opacity:1"/><stop offset=".813" stop-color="#e5a50a" style="stop-color:#000;stop-opacity:1"/><stop offset="1" stop-color="#f8ca5b" style="stop-color:#b2b2b2;stop-opacity:1"/></linearGradient></defs><path fill="#255fdb" d="M45.38 78.295C24.925 51.69 3.925 71.907 9.407 90.502c13.788 29.649 49.413 42.694 79.57 29.138 10.395-4.672 19.217-12.165 25.43-21.597-15.812 14.56-44.523 12.126-69.027-19.748" style="fill:#1d4baf;fill-opacity:1;stroke-width:.0265482"/><path fill="#4285f4" d="M63.666 59.975C35.534 18.025 4 40.381 4 66.008a57.85 57.85 0 0 0 5.455 24.588v-4c0-16.085 17.506-25.507 35.454-1.832 27.443 36.198 54.375 29.83 69.443 13.36a58.14 58.14 0 0 0 9.15-24.213v.114-4.057c0-19.552-35.848 25.776-59.836-9.993" style="fill:#1367f1;fill-opacity:1;stroke-width:.0265482"/><path fill="#91bfff" d="M82.948 41.206C62.057 7.32 35.568 10.37 17.636 28.53 8.797 39.084 3.976 52.337 4 66.008c1.875-24.802 32.386-42.063 60 0 24.545 37.438 55.137 23.595 59.487 4.034l.012 3.91c.38-2.664.519-5.361.46-8.051V63.22c-10.63 7.48-24.607 4.591-41.011-22.014" style="fill:#5ca0ff;fill-opacity:1;stroke-width:.0265482"/><path fill="#c4e1ff" d="M83.09 47.239c19.133 30.238 35.626 22.503 40.91 16.034-.214-4.52-.957-9-2.216-13.353-8.918.181-10.998-1.28-19.773-14.419C88.6 15.298 71.705 1.656 42.181 11.041c-9.564 3.689-18.013 9.718-24.545 17.516 20.285-18.354 45.17-13.373 65.455 18.682" style="fill:#8fc6ff;fill-opacity:1;stroke-width:.0265482"/><path fill="#f5f5f5" d="M100.702 38.102c8.748 13.159 14.073 13.83 21.082 11.818C112.696 18.537 79.452.338 47.53 9.273a61 61 0 0 0-5.348 1.768c26.373-8.178 45.075 6.85 58.52 27.061" style="fill:#dbdbdb;fill-opacity:1;stroke-width:.0265482"/><path d="M124 66a60 59 0 0 1-60 59A60 59 0 0 1 4 66 60 59 0 0 1 64 7a60 59 0 0 1 60 59" style="opacity:.4;fill:url(#b);stroke-width:.343027"/><path fill="#255fdb" d="M45.38 74.295C24.925 47.69 3.925 67.907 9.407 86.502c13.788 29.649 49.413 42.694 79.57 29.138 10.395-4.672 19.217-12.165 25.43-21.597-15.812 14.56-44.523 12.126-69.027-19.748" style="stroke-width:.0265482"/><path fill="#4285f4" d="M63.666 55.975C35.534 14.025 4 36.381 4 62.008a57.85 57.85 0 0 0 5.455 24.588C5.71 69.228 26.009 55.834 44.909 80.764c27.443 36.198 54.375 29.83 69.443 13.36a58.14 58.14 0 0 0 9.15-24.213v.114c-6.47 19.735-35.025 22.946-59.836-14.05" style="stroke-width:.0265482"/><path fill="#91bfff" d="M82.948 37.206C62.057 3.32 35.568 6.37 17.636 24.53 8.797 35.084 3.976 48.337 4 62.008c1.875-24.802 32.386-42.063 60 0 24.545 37.438 55.125 27.685 59.475 8.125l.024-.18c.38-2.665.519-5.362.46-8.052V59.22c-10.63 7.48-24.607 4.591-41.011-22.014" style="stroke-width:.0265482"/><path fill="#c4e1ff" d="M83.09 43.239c19.133 30.238 35.626 22.503 40.91 16.034-.214-4.52-.957-9-2.216-13.353-8.918.181-10.998-1.28-19.773-14.419C88.6 11.298 71.705-2.344 42.181 7.041c-9.564 3.689-18.013 9.718-24.545 17.516 20.285-18.354 45.17-13.373 65.455 18.682" style="stroke-width:.0265482"/><path fill="#f5f5f5" d="M100.702 34.102c8.748 13.159 14.073 13.83 21.082 11.818C112.696 14.537 79.452-3.662 47.53 5.273a61 61 0 0 0-5.348 1.768c26.373-8.178 45.075 6.85 58.52 27.061" style="stroke-width:.0265482"/></svg>
